icons/1_Primary/IServ.svg

<svg width="1024" height="1024" viewBox="0 0 1024 1024" fill="none" xmlns="http://www.w3.org/2000/svg">
<g clip-path="url(#clip0_2_2541)">
<path d="M512 1024C794.77 1024 1024 794.77 1024 512C1024 229.23 794.77 0 512 0C229.23 0 0 229.23 0 512C0 794.77 229.23 1024 512 1024Z" fill="#728DBE"/>
<path d="M204.94 559.85C203.34 559.85 202.05 558.55 202.05 556.95V403.63C202.05 402.03 203.35 400.73 204.94 400.73H206.5C221.54 400.74 233.74 412.94 233.75 427.98V556.95C233.75 558.55 232.45 559.85 230.85 559.85H204.94ZM324.05 559.81C295.76 559.83 264.71 545.14 263.39 512.82C263.38 512.433 263.446 512.048 263.584 511.686C263.723 511.325 263.932 510.995 264.198 510.714C264.465 510.434 264.784 510.209 265.138 510.052C265.492 509.895 265.873 509.809 266.26 509.8H266.31L291.19 509.78C291.9 509.794 292.58 510.071 293.099 510.556C293.618 511.042 293.938 511.702 294 512.41C295.1 523.6 307.42 531.08 324.64 531.06C342.07 531.05 352.9 523.7 352.9 511.91C352.76 497.81 337 494.39 318.72 490.44C293.89 485.07 265.76 478.98 265.73 444.68C265.71 419.24 289.79 400.75 323 400.72C356.36 400.69 378.62 418.18 379.7 445.27C379.71 445.657 379.644 446.042 379.506 446.403C379.367 446.764 379.158 447.095 378.892 447.375C378.625 447.656 378.306 447.881 377.952 448.038C377.598 448.195 377.217 448.28 376.83 448.29H376.78L351.89 448.31C351.18 448.299 350.5 448.025 349.98 447.541C349.461 447.057 349.14 446.397 349.08 445.69C347.99 435.94 337.02 429.14 322.41 429.15C307.74 429.16 297.5 436.41 297.51 446.78C297.51 458.76 312.36 461.98 329.54 465.71C353.84 470.99 384.09 477.56 384.66 512.47C384.8 524.94 380.85 535.31 372.93 543.32C362.45 553.93 345.09 559.78 324.05 559.79V559.81ZM479.06 559.85C436.14 559.85 402.52 525.04 402.52 480.6C402.52 436.16 436.47 400.74 478.18 400.74C514.27 400.74 553.46 427.65 555.02 477.53C555.04 481.6 554.82 485.67 554.35 489.71C554.262 490.407 553.924 491.048 553.397 491.514C552.871 491.98 552.193 492.238 551.49 492.24H436.57C436.432 492.241 436.295 492.273 436.17 492.333C436.046 492.394 435.936 492.481 435.85 492.59C435.65 492.81 435.56 493.11 435.6 493.41C438.86 514.68 455.97 528.99 478.17 528.99C491.77 528.99 503.54 524.03 512.23 514.64C512.73 514.08 513.45 513.76 514.21 513.76L544.71 514.03C545.73 514.04 546.66 514.59 547.17 515.47C547.71 516.36 547.74 517.46 547.25 518.38C533.56 543.97 507.43 559.86 479.06 559.86V559.85ZM479.06 431.61C458.75 431.61 442.26 444.25 436.01 464.62C435.92 464.93 435.98 465.26 436.17 465.52C436.35 465.77 436.63 465.92 436.94 465.93H520.6C520.91 465.93 521.19 465.77 521.37 465.52C521.57 465.26 521.63 464.93 521.53 464.62C515.38 444.87 498.33 431.61 479.07 431.61H479.06ZM579.14 559.85C576.46 559.85 574.29 557.68 574.29 555V488.52C574.29 425.08 613.74 401.57 650.68 400.73C651.066 400.727 651.449 400.8 651.807 400.945C652.165 401.091 652.49 401.305 652.765 401.576C653.04 401.847 653.259 402.17 653.409 402.526C653.559 402.882 653.638 403.264 653.64 403.65V428.7C653.64 430.26 652.37 431.53 650.81 431.54C623.04 431.54 606.29 452.84 605.98 488.53V555C605.98 557.68 603.81 559.85 601.13 559.85H579.14ZM732.15 559.85C731.555 559.849 730.973 559.671 730.479 559.338C729.986 559.005 729.603 558.532 729.38 557.98L669.79 404.83C669.609 404.376 669.541 403.885 669.594 403.4C669.647 402.914 669.818 402.449 670.092 402.045C670.367 401.642 670.736 401.311 671.168 401.084C671.6 400.856 672.082 400.738 672.57 400.74H699.5C700.72 400.74 701.83 401.49 702.27 402.63L744.71 515.22C744.93 515.76 745.54 516.02 746.08 515.8C746.34 515.69 746.55 515.48 746.66 515.22L789.07 402.64C789.292 402.082 789.677 401.603 790.175 401.266C790.672 400.929 791.259 400.749 791.86 400.75H818.79C820.44 400.75 821.77 402.08 821.77 403.73C821.77 404.12 821.7 404.5 821.55 404.86L761.97 558C761.75 558.554 761.368 559.029 760.874 559.362C760.38 559.696 759.796 559.873 759.2 559.87H732.15V559.85ZM440.16 623.26C431.41 623.38 424.21 616.38 424.09 607.62C423.97 598.87 430.97 591.67 439.73 591.55H805.92C814.67 591.43 821.87 598.43 821.99 607.19C822.11 615.94 815.11 623.14 806.35 623.26H440.16ZM366.18 623.26C357.07 623.26 350.2 616.44 350.2 607.41C350.2 598.38 357.07 591.56 366.18 591.56C375.29 591.56 381.91 598.52 381.91 607.41C381.91 616.3 375 623.26 366.18 623.26ZM292.1 623.26C282.99 623.26 276.12 616.44 276.12 607.41C276.12 598.38 282.99 591.56 292.1 591.56C301.21 591.56 307.82 598.52 307.82 607.41C307.82 616.3 300.92 623.26 292.1 623.26ZM218.02 623.26C208.91 623.26 202.03 616.44 202.03 607.41C202.03 598.38 208.9 591.56 218.02 591.56C227.14 591.56 233.74 598.52 233.74 607.41C233.74 616.3 226.84 623.26 218.02 623.26Z" fill="white"/>
</g>
<defs>
<clipPath id="clip0_2_2541">
<rect width="1024" height="1024" fill="white"/>
</clipPath>
</defs>
</svg>

<svg width="1024" height="1024" fill="none" xmlns="http://www.w3.org/2000/svg"><g clip-path="url(#a)"><path d="M512 1024c282.77 0 512-229.23 512-512S794.77 0 512 0 0 229.23 0 512s229.23 512 512 512Z" fill="#728DBE"/><path d="M204.94 559.85c-1.6 0-2.89-1.3-2.89-2.9V403.63c0-1.6 1.3-2.9 2.89-2.9h1.56c15.04.01 27.24 12.21 27.25 27.25v128.97c0 1.6-1.3 2.9-2.9 2.9h-25.91Zm119.11-.04c-28.29.02-59.34-14.67-60.66-46.99-.01-.387.056-.772.194-1.134a2.953 2.953 0 0 1 2.676-1.886h.05l24.88-.02a2.88 2.88 0 0 1 2.81 2.63c1.1 11.19 13.42 18.67 30.64 18.65 17.43-.01 28.26-7.36 28.26-19.15-.14-14.1-15.9-17.52-34.18-21.47-24.83-5.37-52.96-11.46-52.99-45.76-.02-25.44 24.06-43.93 57.27-43.96 33.36-.03 55.62 17.46 56.7 44.55a2.953 2.953 0 0 1-1.748 2.768 2.954 2.954 0 0 1-1.122.252h-.05l-24.89.02a2.868 2.868 0 0 1-2.81-2.62c-1.09-9.75-12.06-16.55-26.67-16.54-14.67.01-24.91 7.26-24.9 17.63 0 11.98 14.85 15.2 32.03 18.93 24.3 5.28 54.55 11.85 55.12 46.76.14 12.47-3.81 22.84-11.73 30.85-10.48 10.61-27.84 16.46-48.88 16.47v.02Zm155.01.04c-42.92 0-76.54-34.81-76.54-79.25s33.95-79.86 75.66-79.86c36.09 0 75.28 26.91 76.84 76.79.02 4.07-.2 8.14-.67 12.18a2.89 2.89 0 0 1-2.86 2.53H436.57a.929.929 0 0 0-.72.35c-.2.22-.29.52-.25.82 3.26 21.27 20.37 35.58 42.57 35.58 13.6 0 25.37-4.96 34.06-14.35.5-.56 1.22-.88 1.98-.88l30.5.27c1.02.01 1.95.56 2.46 1.44.54.89.57 1.99.08 2.91-13.69 25.59-39.82 41.48-68.19 41.48v-.01Zm0-128.24c-20.31 0-36.8 12.64-43.05 33.01-.09.31-.03.64.16.9.18.25.46.4.77.41h83.66c.31 0 .59-.16.77-.41.2-.26.26-.59.16-.9-6.15-19.75-23.2-33.01-42.46-33.01h-.01Zm100.08 128.24c-2.68 0-4.85-2.17-4.85-4.85v-66.48c0-63.44 39.45-86.95 76.39-87.79a2.941 2.941 0 0 1 2.085.846 2.933 2.933 0 0 1 .875 2.074v25.05c0 1.56-1.27 2.83-2.83 2.84-27.77 0-44.52 21.3-44.83 56.99V555c0 2.68-2.17 4.85-4.85 4.85h-21.99Zm153.01 0a2.991 2.991 0 0 1-2.77-1.87l-59.59-153.15a2.986 2.986 0 0 1 .302-2.785 2.986 2.986 0 0 1 2.478-1.305h26.93c1.22 0 2.33.75 2.77 1.89l42.44 112.59c.22.54.83.8 1.37.58.26-.11.47-.32.58-.58l42.41-112.58a2.997 2.997 0 0 1 2.79-1.89h26.93c1.65 0 2.98 1.33 2.98 2.98 0 .39-.07.77-.22 1.13L761.97 558a2.96 2.96 0 0 1-2.77 1.87h-27.05v-.02Zm-291.99 63.41c-8.75.12-15.95-6.88-16.07-15.64-.12-8.75 6.88-15.95 15.64-16.07h366.19c8.75-.12 15.95 6.88 16.07 15.64.12 8.75-6.88 15.95-15.64 16.07H440.16Zm-73.98 0c-9.11 0-15.98-6.82-15.98-15.85s6.87-15.85 15.98-15.85 15.73 6.96 15.73 15.85-6.91 15.85-15.73 15.85Zm-74.08 0c-9.11 0-15.98-6.82-15.98-15.85s6.87-15.85 15.98-15.85 15.72 6.96 15.72 15.85-6.9 15.85-15.72 15.85Zm-74.08 0c-9.11 0-15.99-6.82-15.99-15.85s6.87-15.85 15.99-15.85c9.12 0 15.72 6.96 15.72 15.85s-6.9 15.85-15.72 15.85Z" fill="#fff"/></g><defs><clipPath id="a"><path fill="#fff" d="M0 0h1024v1024H0z"/></clipPath></defs></svg>
